X:1
T:Title
%%score 1 2 3 4
L:1/8
M:2/2
K:A
V:1 treble nm="Choir Aahs"
V:2 treble nm="Choir Aahs"
V:3 bass nm="Choir Aahs"
V:4 bass nm="Choir Aahs"
V:1
 z2 E2 | A6 E2 | A3 B c3 B | A3 E d3 c | B8 | B3 A G3 F | E8 | A3 B c3 d | B8 | c6 d2 | e3 c d3 B | %11
 c4 B4 | A8 | z4 A3 B | c3 B A3 d | c3 B A3 d | c3 d e3 f | e4 e3 d | c3 B A3 B | c4 B4 | %20
 A4 z2 e2 | c3 B A3 d | c3 d e3 f | c3 B A3 d | c3 d e3 f | e3 c d3 c | c4 B4 | A8 |] %28
V:2
 z2 A2 | A6 G2 | A6- AG | A4 A3 F | G8 | G3 F E4 | E8 | F3 G A3 A | G8 | A8 | A3 E D3 E | E4 E4 | %12
 E8 | z4 E4 | A6- AG | A4 A3 F | E4 E3 D | E4 E4 | A6- AF | E4 E4 | E4 z2 E2 | A3 G A3 B | %22
 A3 F E3 D | C3 D E3 D | C3 B, A,3 B, | A3 G F3 F | E4 E4 | E8 |] %28
V:3
 z2 A,2 | A,3 B, C2 B,2 | C3 D E3 E | C3[K:bass] B, A,3 A, | G,8 | G,3 A, B,4 | C8 | C3 B, A,3 F | %8
 E8 | E6 D2 | C3[K:bass] A, B,3 B, | A,4 G,4 | A,8 | z4 A,4 | A,3 B,[K:treble] C3 D | E3 D C3 D | %16
 E3 D C3[K:bass] B, | E,4 A,4 | A,3 B, C3 B, | A,4 G,4 | A,4 z2 A,2 | A,3 B,[K:treble] C3 D | %22
 E3 D C3 D | E3 D C3 D | E3 D C3[K:bass] B, | C3 B, A,3 B, | A,4 G,4 | A,8 |] %28
V:4
 z2 A,,2 | A,6 B,2 | C3 B, A,3 E, | A,3 G, F,3 D, | E,8 | E,4 E,3 D, | C,8 | A,3 G, F,3 D, | E,8 | %9
 A,8 | C,4 D,4 | E,4 E,4 | A,,8 | z4 A,4 | A,3 D, C,3 B,, | A,,3 D, C,3 B,, | A,,3 B,, C,3 D, | %17
 E,4 C3 B, | A,3 G, F,3 D, | E,4 E,4 | A,,4 z2 A,2 | A,3 E, C,3 E, | A,3 B, C3 B, | %23
 A,3 E, C,3 B,, | A,,3 B,, C,3 D, | C,3 E, F,3 D, | E,4 E,4 | A,,8 |] %28

